templates/main/source/svg/icons/header-address.svg

<svg xmlns="http://www.w3.org/2000/svg" width="16" height="23"><path fill-rule="evenodd" fill="#FFF" d="M15.642 11.339c-.318 1.055-.831 2.01-1.442 2.909-.981 1.442-1.962 2.884-2.957 4.316-.692.995-1.409 1.972-2.113 2.959-.316.443-.629.888-.942 1.333-.133.19-.191.194-.322.002-.196-.287-.38-.582-.581-.864-.101-.144-.238-.26-.34-.403-.822-1.156-1.648-2.309-2.456-3.476-.455-.656-.875-1.339-1.317-2.005-.583-.878-1.204-1.733-1.748-2.637-.366-.608-.697-1.249-.888-1.952-.079-.291-.217-.568-.27-.863C.157 10.047.086 9.426 0 8.81a.793.793 0 0 1 .048-.007C.002 7.951.109 7.113.3 6.291c.191-.823.524-1.589.947-2.318A8.137 8.137 0 0 1 4.84.689 7.32 7.32 0 0 1 7.881 0a7.609 7.609 0 0 1 2.137.261c.81.223 1.565.559 2.26 1.033.399.272.774.587 1.134.913.703.633 1.231 1.414 1.666 2.262.33.641.556 1.325.713 2.034.186.842.235 1.698.197 2.558-.034.771-.123 1.539-.346 2.278zm-1.123-2.752a7.051 7.051 0 0 0-.435-2.718 6.889 6.889 0 0 0-.911-1.676 6.287 6.287 0 0 0-1.667-1.595c-.569-.373-1.155-.707-1.826-.832-.461-.086-.923-.186-1.389-.227a4.536 4.536 0 0 0-1.979.242c-.496.183-1.006.351-1.464.613-.864.495-1.576 1.188-2.144 2.036a7.156 7.156 0 0 0-1.103 2.836c-.064.384-.143.771-.157 1.159-.025.665.028 1.33.204 1.974.125.457.255.914.424 1.354.095.246.28.454.412.686.256.448.476.922.76 1.349.673 1.009 1.374 1.999 2.065 2.994.339.49.675.981 1.026 1.461.208.284.451.539.66.821.304.41.592.832.885 1.251.114.161.172.167.283.011l.85-1.205c.774-1.097 1.562-2.185 2.319-3.295.745-1.093 1.465-2.205 2.185-3.316a5.944 5.944 0 0 0 .829-2.063c.122-.608.153-1.237.224-1.856a.875.875 0 0 0-.051-.004zm-3.413 1.54c-.358.685-.891 1.168-1.545 1.523-.509.276-1.062.351-1.674.406-.253-.041-.575-.038-.853-.151-.393-.159-.757-.397-1.129-.611-.326-.188-.623-.416-.814-.76a14.438 14.438 0 0 1-.52-.994c-.182-.396-.21-.839-.209-1.264a3.796 3.796 0 0 1 .477-1.885c.412-.733.985-1.271 1.728-1.593.847-.366 1.717-.41 2.595-.083a3.524 3.524 0 0 1 1.784 1.431c.197.31.323.673.461 1.021.227.574.177 1.177.115 1.77-.045.424-.22.814-.416 1.19zM7.973 6.034c-1.141-.009-2.124.935-2.147 2.202-.022 1.197.916 2.257 2.127 2.261 1.212.004 2.155-.991 2.16-2.247-.023-1.201-.899-2.205-2.14-2.216z"/></svg>

<svg
 xmlns="http://www.w3.org/2000/svg"
 xmlns:xlink="http://www.w3.org/1999/xlink"
 width="16px" height="23px">
<path fill-rule="evenodd"  fill="rgb(255, 255, 255)"
 d="M15.642,11.339 C15.324,12.394 14.811,13.349 14.200,14.248 C13.219,15.690 12.238,17.132 11.243,18.564 C10.551,19.559 9.834,20.536 9.130,21.523 C8.814,21.966 8.501,22.411 8.188,22.856 C8.055,23.046 7.997,23.050 7.866,22.858 C7.670,22.571 7.486,22.276 7.285,21.994 C7.184,21.850 7.047,21.734 6.945,21.591 C6.123,20.435 5.297,19.282 4.489,18.115 C4.034,17.459 3.614,16.776 3.172,16.110 C2.589,15.232 1.968,14.377 1.424,13.473 C1.058,12.865 0.727,12.224 0.536,11.521 C0.457,11.230 0.319,10.953 0.266,10.658 C0.157,10.047 0.086,9.426 -0.000,8.810 C0.016,8.807 0.032,8.805 0.048,8.803 C0.002,7.951 0.109,7.113 0.300,6.291 C0.491,5.468 0.824,4.702 1.247,3.973 C1.681,3.224 2.217,2.575 2.846,2.006 C3.446,1.462 4.114,1.029 4.840,0.689 C5.809,0.235 6.827,0.014 7.881,0.000 C8.599,-0.010 9.313,0.067 10.018,0.261 C10.828,0.484 11.583,0.820 12.278,1.294 C12.677,1.566 13.052,1.881 13.412,2.207 C14.115,2.840 14.643,3.621 15.078,4.469 C15.408,5.110 15.634,5.794 15.791,6.503 C15.977,7.345 16.026,8.201 15.988,9.061 C15.954,9.832 15.865,10.600 15.642,11.339 ZM14.519,8.587 C14.556,7.649 14.403,6.743 14.084,5.869 C13.863,5.263 13.547,4.710 13.173,4.193 C12.711,3.553 12.155,3.023 11.506,2.598 C10.937,2.225 10.351,1.891 9.680,1.766 C9.219,1.680 8.757,1.580 8.291,1.539 C7.620,1.480 6.951,1.546 6.312,1.781 C5.816,1.964 5.306,2.132 4.848,2.394 C3.984,2.889 3.272,3.582 2.704,4.430 C2.130,5.288 1.773,6.238 1.601,7.266 C1.537,7.650 1.458,8.037 1.444,8.425 C1.419,9.090 1.472,9.755 1.648,10.399 C1.773,10.856 1.903,11.313 2.072,11.753 C2.167,11.999 2.352,12.207 2.484,12.439 C2.740,12.887 2.960,13.361 3.244,13.788 C3.917,14.797 4.618,15.787 5.309,16.782 C5.648,17.272 5.984,17.763 6.335,18.243 C6.543,18.527 6.786,18.782 6.995,19.064 C7.299,19.474 7.587,19.896 7.880,20.315 C7.994,20.476 8.052,20.482 8.163,20.326 C8.447,19.924 8.730,19.523 9.013,19.121 C9.787,18.024 10.575,16.936 11.332,15.826 C12.077,14.733 12.797,13.621 13.517,12.510 C13.923,11.882 14.198,11.183 14.346,10.447 C14.468,9.839 14.499,9.210 14.570,8.591 C14.553,8.589 14.536,8.588 14.519,8.587 ZM11.106,10.127 C10.748,10.812 10.215,11.295 9.561,11.650 C9.052,11.926 8.499,12.001 7.887,12.056 C7.634,12.015 7.312,12.018 7.034,11.905 C6.641,11.746 6.277,11.508 5.905,11.294 C5.579,11.106 5.282,10.878 5.091,10.534 C4.909,10.207 4.727,9.880 4.571,9.540 C4.389,9.144 4.361,8.701 4.362,8.276 C4.363,7.613 4.509,6.978 4.839,6.391 C5.251,5.658 5.824,5.120 6.567,4.798 C7.414,4.432 8.284,4.388 9.162,4.715 C9.906,4.993 10.511,5.464 10.946,6.146 C11.143,6.456 11.269,6.819 11.407,7.167 C11.634,7.741 11.584,8.344 11.522,8.937 C11.477,9.361 11.302,9.751 11.106,10.127 ZM7.973,6.034 C6.832,6.025 5.849,6.969 5.826,8.236 C5.804,9.433 6.742,10.493 7.953,10.497 C9.165,10.501 10.108,9.506 10.113,8.250 C10.090,7.049 9.214,6.045 7.973,6.034 Z"/>
</svg>
